X: 492
T: Will you go to Sheriff Moor
R: reel, strathspey
B: Robert Bremner "A Collection of Scots Reels or Country Dances" 1757 p.49 #2
S: http://imslp.org/wiki/A_Collection_of_Scots_Reels_or_Country_Dances_(Bremner,_Robert)
Z: 2013 John Chambers <jc:trillian.mit.edu>
N: There is a footnote "Number 7."
M: C|
L: 1/8
K: G
% - - - - - - - - - - - - - - - - - - - - - - - - -
V: 1
|:\
D>EGB A/A/A A2 | D>EGA c/c/c c2 |\
B/B/B Bg A/A/A AB | G(cTBA) G2D2 :|\
g>age agab | gage gd-de |
gage agab | gaef g2dg |\
edgB A/A/A A2 | D>EGA c/c/c c2 |\
B/B/B Bg A/A/A AB | G(cTBA) G2G,2 |]
% - - - - - - - - - - - - - - - - - - - - - - - - -
V: 2 clef=bass middle=d
|:\
g2g2 a2a2 | g2g2 c2c2 |\
G2G2 d2d2 g2d2 G2G2 :|\
g2g2 a2a2 | g2g2 g2g2 |
g2g2 a2a2 | g2g2 g2g2 |\
g2g2 a2a2 | g2g2 c2c2 |\
G2G2 d2d2 | g2d2 G2G2 |]
% - - - - - - - - - - - - - - - - - - - - - - - - -

%%sep 1 1 500
%%sep 1 1 500
